img/power.svg

<svg version="1.1" xmlns="http://www.w3.org/2000/svg" xmlns:xlink="http://www.w3.org/1999/xlink" width="149" height="149"><defs/><g><rect fill="black" stroke="none" x="0" y="0" width="149" height="149"/><g/><path fill="none" stroke="rgb(0,255,0)" paint-order="fill stroke markers" d=" M -65.13552178651642 68.34104943155448 L -53.62913326321643 114.71528196485451" stroke-miterlimit="10" stroke-width="4" stroke-dasharray=""/><path fill="none" stroke="rgb(128,128,128)" paint-order="fill stroke markers" d=" M -67.07666227959996 68.82268579450002 L -55.57027375629997 115.19691832780005" stroke-opacity="255" stroke-miterlimit="10" stroke-width="2" stroke-dasharray=""/><path fill="none" stroke="rgb(192,192,192)" paint-order="fill stroke markers" d=" M 104.12445180950006 22.44845326120002 L 108.30859309070007 86.25660779949996" stroke-miterlimit="10" stroke-dasharray="5,5"/><path fill="none" stroke="rgb(255,255,128)" paint-order="fill stroke markers" d=" M -65.87257137223611 73.67553702720886 L 104.70822397487635 31.35097878318853" stroke-miterlimit="10"/><path fill="none" stroke="rgb(255,255,128)" paint-order="fill stroke markers" d=" M -63.46438955750842 83.38123949262653 L 105.37302854869641 41.489248533944185" stroke-miterlimit="10"/><path fill="none" stroke="rgb(255,255,128)" paint-order="fill stroke markers" d=" M -61.05620774278073 93.08694195804422 L 106.03783312251646 51.62751828469985" stroke-miterlimit="10"/><path fill="none" stroke="rgb(255,255,128)" paint-order="fill stroke markers" d=" M -58.64802592805304 102.7926444234619 L 106.7026376963365 61.76578803545553" stroke-miterlimit="10"/><path fill="none" stroke="rgb(255,255,128)" paint-order="fill stroke markers" d=" M -56.23984411332535 112.49834688887958 L 107.36744227015654 71.9040577862112" stroke-miterlimit="10"/><path fill="none" stroke="rgb(255,255,128)" paint-order="fill stroke markers" d=" M 104.70822397487635 31.35097878318853 L 2536.036827554192 -571.911005563558" stroke-miterlimit="10"/><path fill="none" stroke="rgb(255,255,128)" paint-order="fill stroke markers" d=" M 105.37302854869641 41.489248533944185 L 2547.1867746386242 -564.3743125259623" stroke-miterlimit="10"/><path fill="none" stroke="rgb(255,255,128)" paint-order="fill stroke markers" d=" M 106.03783312251646 51.62751828469985 L 2558.336721723057 -556.8376194883657" stroke-miterlimit="10"/><path fill="none" stroke="rgb(255,255,128)" paint-order="fill stroke markers" d=" M 106.7026376963365 61.76578803545553 L 2569.486668807489 -549.3009264507699" stroke-miterlimit="10"/><path fill="none" stroke="rgb(255,255,128)" paint-order="fill stroke markers" d=" M 107.36744227015654 71.9040577862112 L 2580.636615891922 -541.7642334131743" stroke-miterlimit="10"/><path fill="none" stroke="rgb(0,255,0)" paint-order="fill stroke markers" d=" M -65.13552178651642 68.34104943155448 L -53.62913326321643 114.71528196485451" stroke-miterlimit="10" stroke-width="4"/><path fill="none" stroke="rgb(128,128,128)" paint-order="fill stroke markers" d=" M -67.07666227959996 68.82268579450002 L -55.57027375629997 115.19691832780005" stroke-opacity="255" stroke-miterlimit="10" stroke-width="2"/><text fill="rgb(192,192,192)" stroke="none" font-family="Arial" font-size="16px" font-style="normal" font-weight="normal" text-decoration="normal" x="108.30859309070007" y="86.25660779949996" text-anchor="end" dominant-baseline="text-before-edge">P=5.00</text><text fill="rgb(192,192,192)" stroke="none" font-family="Arial" font-size="16px" font-style="normal" font-weight="normal" text-decoration="normal" x="108.30859309070007" y="106.25660779949996" text-anchor="end" dominant-baseline="text-before-edge">F⊥=4.92</text><text fill="rgb(192,192,192)" stroke="none" font-family="Arial" font-size="16px" font-style="normal" font-weight="normal" text-decoration="normal" x="108.30859309070007" y="126.25660779949996" text-anchor="end" dominant-baseline="text-before-edge">F∥=0.88</text></g></svg>

<svg xmlns="http://www.w3.org/2000/svg" width="149" height="149"><path d="M0 0h149v149H0z"/><path fill="none" stroke="#0F0" paint-order="fill stroke markers" d="m-65.136 68.341 11.507 46.374" stroke-miterlimit="10" stroke-width="4"/><path fill="none" stroke="gray" paint-order="fill stroke markers" d="m-67.077 68.823 11.507 46.374" stroke-opacity="255" stroke-miterlimit="10" stroke-width="2"/><path fill="none" stroke="silver" paint-order="fill stroke markers" d="m104.124 22.448 4.185 63.809" stroke-miterlimit="10" stroke-dasharray="5,5"/><path fill="none" stroke="#FFFF80" paint-order="fill stroke markers" d="M-65.873 73.676 104.708 31.35M-63.464 83.381 105.373 41.49M-61.056 93.087l167.094-41.46M-58.648 102.793l165.35-41.027M-56.24 112.498l163.607-40.594M104.708 31.351l2431.329-603.262M105.373 41.49l2441.814-605.864M106.038 51.628l2452.299-608.466M106.703 61.766l2462.784-611.067M107.367 71.904l2473.27-613.668" stroke-miterlimit="10"/><path fill="none" stroke="#0F0" paint-order="fill stroke markers" d="m-65.136 68.341 11.507 46.374" stroke-miterlimit="10" stroke-width="4"/><path fill="none" stroke="gray" paint-order="fill stroke markers" d="m-67.077 68.823 11.507 46.374" stroke-opacity="255" stroke-miterlimit="10" stroke-width="2"/><text fill="silver" font-family="Arial" font-size="16" text-decoration="normal" x="108.309" y="86.257" text-anchor="end" dominant-baseline="text-before-edge">P=5.00</text><text fill="silver" font-family="Arial" font-size="16" text-decoration="normal" x="108.309" y="106.257" text-anchor="end" dominant-baseline="text-before-edge">F⊥=4.92</text><text fill="silver" font-family="Arial" font-size="16" text-decoration="normal" x="108.309" y="126.257" text-anchor="end" dominant-baseline="text-before-edge">F∥=0.88</text></svg>
